svg/Tango/actions/go-bottom.svg

<?xml version="1.0" encoding="UTF-8" standalone="no"?>
<!-- Created with Inkscape (http://www.inkscape.org/) -->
<svg
   xmlns:dc="http://purl.org/dc/elements/1.1/"
   xmlns:cc="http://creativecommons.org/ns#"
   xmlns:rdf="http://www.w3.org/1999/02/22-rdf-syntax-ns#"
   xmlns:svg="http://www.w3.org/2000/svg"
   xmlns="http://www.w3.org/2000/svg"
   xmlns:xlink="http://www.w3.org/1999/xlink"
   xmlns:sodipodi="http://sodipodi.sourceforge.net/DTD/sodipodi-0.dtd"
   xmlns:inkscape="http://www.inkscape.org/namespaces/inkscape"
   sodipodi:docname="go-bottom.svg"
   sodipodi:docbase="/home/tigert/cvs/freedesktop.org/tango-icon-theme/scalable/actions"
   inkscape:version="0.46"
   sodipodi:version="0.32"
   id="svg11300"
   height="48px"
   width="48px"
   inkscape:export-filename="/home/jimmac/Desktop/wi-fi.png"
   inkscape:export-xdpi="90.000000"
   inkscape:export-ydpi="90.000000"
   inkscape:output_extension="org.inkscape.output.svg.inkscape">
  <defs
     id="defs3">
    <inkscape:perspective
       sodipodi:type="inkscape:persp3d"
       inkscape:vp_x="0 : 24 : 1"
       inkscape:vp_y="0 : 1000 : 0"
       inkscape:vp_z="48 : 24 : 1"
       inkscape:persp3d-origin="24 : 16 : 1"
       id="perspective27" />
    <linearGradient
       id="linearGradient2309">
      <stop
         id="stop2311"
         offset="0"
         style="stop-color:#73d216" />
      <stop
         id="stop2313"
         offset="1.0000000"
         style="stop-color:#4e9a06" />
    </linearGradient>
    <radialGradient
       inkscape:collect="always"
       xlink:href="#linearGradient8650"
       id="radialGradient7994"
       cx="16.620785"
       cy="-29.734715"
       fx="16.620785"
       fy="-29.734715"
       r="16.500000"
       gradientTransform="matrix(-2.193185,-5.372224e-4,-2.626836e-4,0.916667,44.50040,59.29963)"
       gradientUnits="userSpaceOnUse" />
    <linearGradient
       id="linearGradient8662"
       inkscape:collect="always">
      <stop
         id="stop8664"
         offset="0"
         style="stop-color:#000000;stop-opacity:1;" />
      <stop
         id="stop8666"
         offset="1"
         style="stop-color:#000000;stop-opacity:0;" />
    </linearGradient>
    <linearGradient
       id="linearGradient8650"
       inkscape:collect="always">
      <stop
         id="stop8652"
         offset="0"
         style="stop-color:#ffffff;stop-opacity:1;" />
      <stop
         id="stop8654"
         offset="1"
         style="stop-color:#ffffff;stop-opacity:0;" />
    </linearGradient>
    <radialGradient
       inkscape:collect="always"
       xlink:href="#linearGradient2309"
       id="radialGradient1441"
       gradientUnits="userSpaceOnUse"
       gradientTransform="matrix(-1.871885e-16,0.843022,-1.020168,-2.265228e-16,46.39357,1.413854)"
       cx="34.663586"
       cy="20.321211"
       fx="34.663586"
       fy="20.321211"
       r="16.9562" />
    <radialGradient
       inkscape:collect="always"
       xlink:href="#linearGradient8662"
       id="radialGradient1444"
       gradientUnits="userSpaceOnUse"
       gradientTransform="matrix(1.000000,0.000000,0.000000,0.536723,-1.517764e-15,16.87306)"
       cx="24.837126"
       cy="36.421127"
       fx="24.837126"
       fy="36.421127"
       r="15.644737" />
    <radialGradient
       inkscape:collect="always"
       xlink:href="#linearGradient8650"
       id="radialGradient10491"
       gradientUnits="userSpaceOnUse"
       gradientTransform="matrix(-3.749427e-16,2.046729,1.557610,2.853404e-16,2.912970,-22.93354)"
       cx="15.987216"
       cy="1.5350308"
       fx="15.987216"
       fy="1.5350308"
       r="17.171415" />
    <radialGradient
       inkscape:collect="always"
       xlink:href="#linearGradient2309"
       id="radialGradient11961"
       cx="13.904816"
       cy="36.435665"
       fx="13.904816"
       fy="36.435665"
       r="16.505941"
       gradientTransform="matrix(0.999669,-4.782903e-3,3.785304e-3,0.791668,-0.221863,10.41377)"
       gradientUnits="userSpaceOnUse" />
  </defs>
  <sodipodi:namedview
     inkscape:window-y="48"
     inkscape:window-x="293"
     inkscape:window-height="688"
     inkscape:window-width="872"
     inkscape:showpageshadow="false"
     inkscape:document-units="px"
     inkscape:grid-bbox="true"
     showgrid="false"
     inkscape:current-layer="layer1"
     inkscape:cy="22.011268"
     inkscape:cx="19.624097"
     inkscape:zoom="2.8284271"
     inkscape:pageshadow="2"
     inkscape:pageopacity="0.0"
     borderopacity="0.25490196"
     bordercolor="#666666"
     pagecolor="#ffffff"
     id="base"
     fill="#4e9a06"
     stroke="#4e9a06" />
  <metadata
     id="metadata4">
    <rdf:RDF>
      <cc:Work
         rdf:about="">
        <dc:format>image/svg+xml</dc:format>
        <dc:type
           rdf:resource="http://purl.org/dc/dcmitype/StillImage" />
        <dc:creator>
          <cc:Agent>
            <dc:title>Jakub Steiner</dc:title>
          </cc:Agent>
        </dc:creator>
        <dc:source>http://jimmac.musichall.cz</dc:source>
        <cc:license
           rdf:resource="http://creativecommons.org/licenses/publicdomain/" />
        <dc:title>Go to Bottom</dc:title>
        <dc:subject>
          <rdf:Bag>
            <rdf:li>go</rdf:li>
            <rdf:li>bottom</rdf:li>
          </rdf:Bag>
        </dc:subject>
        <dc:contributor>
          <cc:Agent>
            <dc:title>Andreas Nilsson</dc:title>
          </cc:Agent>
        </dc:contributor>
      </cc:Work>
      <cc:License
         rdf:about="http://creativecommons.org/licenses/publicdomain/">
        <cc:permits
           rdf:resource="http://creativecommons.org/ns#Reproduction" />
        <cc:permits
           rdf:resource="http://creativecommons.org/ns#Distribution" />
        <cc:permits
           rdf:resource="http://creativecommons.org/ns#DerivativeWorks" />
      </cc:License>
    </rdf:RDF>
  </metadata>
  <g
     inkscape:groupmode="layer"
     inkscape:label="Layer 1"
     id="layer1">
    <path
       transform="matrix(1.214466,0.000000,0.000000,0.595458,-6.163846,20.18775)"
       d="M 40.481863 36.421127 A 15.644737 8.3968935 0 1 1  9.1923885,36.421127 A 15.644737 8.3968935 0 1 1  40.481863 36.421127 z"
       sodipodi:ry="8.3968935"
       sodipodi:rx="15.644737"
       sodipodi:cy="36.421127"
       sodipodi:cx="24.837126"
       id="path8660"
       style="opacity:0.20454544;color:#000000;fill:url(#radialGradient1444);fill-opacity:1;fill-rule:evenodd;stroke:none;stroke-width:1;stroke-linecap:butt;stroke-linejoin:miter;marker:none;marker-start:none;marker-mid:none;marker-end:none;stroke-miterlimit:10;stroke-dasharray:none;stroke-dashoffset:0;stroke-opacity:1;visibility:visible;display:inline;overflow:visible"
       sodipodi:type="arc" />
    <path
       style="opacity:1.0000000;color:#000000;fill:url(#radialGradient1441);fill-opacity:1.0;fill-rule:evenodd;stroke:#3b7502;stroke-width:1.0000004;stroke-linecap:round;stroke-linejoin:round;marker:none;marker-start:none;marker-mid:none;marker-end:none;stroke-miterlimit:10.000000;stroke-dasharray:none;stroke-dashoffset:0.0000000;stroke-opacity:1;visibility:visible;display:inline;overflow:visible"
       d="M 40.500000,42.500000 L 40.500000,36.503792 L 25.375000,36.503792 L 40.468750,18.500000 L 32.500000,18.437500 L 32.500000,5.4999998 L 14.531250,5.4999998 L 14.531250,18.437500 L 6.5000002,18.437500 L 21.875000,36.503792 L 6.5018962,36.503792 L 6.5018962,42.500000 L 40.500000,42.500000 z "
       id="path10479"
       sodipodi:nodetypes="ccccccccccccc" />
    <path
       sodipodi:nodetypes="cccccc"
       id="path8645"
       d="M 7.5986710,19.005743 L 15.005062,18.994024 L 15.002381,6.0011870 L 30.380937,6.0103400 C 29.611015,24.351330 19.658288,17.003413 14.999278,27.657219 L 7.5986710,19.005743 z "
       style="opacity:0.50802141;color:#000000;fill:url(#radialGradient10491);fill-opacity:1.0000000;fill-rule:evenodd;stroke:none;stroke-width:1.0000000;stroke-linecap:round;stroke-linejoin:round;marker:none;marker-start:none;marker-mid:none;marker-end:none;stroke-miterlimit:10.000000;stroke-dasharray:none;stroke-dashoffset:0.0000000;stroke-opacity:1.0000000;visibility:visible;display:inline;overflow:visible" />
    <path
       style="opacity:0.48128340;color:#000000;fill:none;fill-opacity:1.0000000;fill-rule:evenodd;stroke:#ffffff;stroke-width:1.0000004;stroke-linecap:butt;stroke-linejoin:miter;marker:none;marker-start:none;marker-mid:none;marker-end:none;stroke-miterlimit:10.000000;stroke-dasharray:none;stroke-dashoffset:0.0000000;stroke-opacity:1.0000000;visibility:visible;display:inline;overflow:visible"
       d="M 31.529849,6.5000002 L 15.519518,6.5000002 L 15.519518,19.492950 L 8.6884242,19.492950 L 23.146289,36.497838 L 24.058638,36.510066 L 38.279030,19.537918 L 31.480757,19.471627 L 31.529849,6.5000002 z "
       id="path10496"
       sodipodi:nodetypes="ccccccccc" />
    <rect
       style="opacity:0.481;fill:url(#radialGradient11961);fill-opacity:1.0;fill-rule:evenodd;stroke:#ffffff;stroke-width:1.00000036;stroke-linecap:butt;stroke-linejoin:miter;stroke-miterlimit:4;stroke-dasharray:none;stroke-dashoffset:0;stroke-opacity:1"
       id="rect2163"
       width="32.001644"
       height="4.0094671"
       x="7.4998465"
       y="37.5" />
    <path
       style="opacity:0.17613636;fill:url(#radialGradient7994);fill-opacity:1.0000000;fill-rule:evenodd;stroke:none;stroke-width:0.25000000pt;stroke-linecap:butt;stroke-linejoin:miter;stroke-opacity:1.0000000"
       d="M 40.000000,40.785821 C 27.939340,36.732669 10.597476,42.084912 7.0220967,39.534362 L 7.0376697,37.027779 L 40.000000,37.004571 L 40.000000,40.785821 z "
       id="path5072"
       sodipodi:nodetypes="ccccc" />
  </g>
</svg>

<svg xmlns="http://www.w3.org/2000/svg" xmlns:xlink="http://www.w3.org/1999/xlink" viewBox="0 0 48 48"><defs><linearGradient id="2"><stop stop-color="#fff"/><stop offset="1" stop-color="#fff" stop-opacity="0"/></linearGradient><linearGradient id="0"><stop stop-color="#73d216"/><stop offset="1" stop-color="#4e9a06"/></linearGradient><radialGradient id="4" gradientUnits="userSpaceOnUse" gradientTransform="matrix(1 0 0 .53672 0 16.873)" cx="24.837" cy="36.421" r="15.645"><stop/><stop offset="1" stop-opacity="0"/></radialGradient><radialGradient xlink:href="#2" id="5" gradientUnits="userSpaceOnUse" gradientTransform="matrix(0 2.04673 1.55761 0 2.913-22.934)" cx="15.987" cy="1.535" r="17.17"/><radialGradient xlink:href="#0" id="3" gradientUnits="userSpaceOnUse" gradientTransform="matrix(0 .84302-1.02017 0 46.39 1.414)" cx="34.664" cy="20.321" r="16.956"/><radialGradient xlink:href="#2" id="1" cx="16.621" cy="-29.735" r="16.5" gradientTransform="matrix(-2.19319-.00054-.00026.91667 44.5 59.3)" gradientUnits="userSpaceOnUse"/><radialGradient xlink:href="#0" id="6" cx="13.905" cy="36.436" r="16.506" gradientTransform="matrix(.99967-.00478.00379.79167-.222 10.414)" gradientUnits="userSpaceOnUse"/></defs><g fill-rule="evenodd"><g color="#000"><path transform="matrix(1.21447 0 0 .59546-6.164 20.19)" d="M40.481863 36.421127A15.644737 8.396893 0 1 1 9.192388 36.421127 15.644737 8.396893 0 1 1 40.481863 36.421127" opacity=".205" fill="url(#4)"/><path d="m40.5 42.5v-5.996h-15.12l15.09-18-7.969-.063v-12.938h-17.969v12.938h-8.03l15.375 18.07h-15.373v5.996h33.998z" stroke-linecap="round" stroke-miterlimit="10" fill="url(#3)" stroke-linejoin="round" stroke="#3b7502"/><path d="m7.599 19.01l7.406-.012-.003-12.993 15.379.009c-.77 18.341-10.723 10.993-15.382 21.647l-7.401-8.651" opacity=".508" fill="url(#5)"/><path d="m31.53 6.5h-16.01v12.993h-6.831l14.458 17 .912.012 14.22-16.972-6.798-.066.049-12.972z" opacity=".481" stroke-miterlimit="10" fill="none" stroke="#fff"/></g><path opacity=".481" fill="url(#6)" stroke="#fff" d="m7.5 37.5h32v4.01h-32z"/><path d="m40 40.786c-12.06-4.053-29.403 1.299-32.978-1.251l.016-2.507 32.962-.023v3.781" opacity=".176" fill="url(#1)"/></g></svg>
